images/logotypes/logo_3.svg

<svg width="184" height="70" viewBox="0 0 184 70" fill="none" xmlns="http://www.w3.org/2000/svg">
<rect x="0.221191" width="183.696" height="70" rx="35" fill="white"/>
<path d="M87.8354 50.238H90.5698V39.9237H87.8354V50.238ZM87.8354 38.3152H90.5698V35.8623H87.8354V38.3152Z" fill="#252525"/>
<path d="M92.332 53.6159H95.0664V49.072H95.1067C95.6897 49.9566 96.6347 50.5397 98.0823 50.5397C100.736 50.5397 102.546 48.4286 102.546 45.091C102.546 41.874 100.797 39.6423 98.0622 39.6423C96.6548 39.6423 95.6897 40.3058 95.0262 41.2105H94.9659V39.9238H92.332V53.6159ZM97.4993 48.2677C95.8707 48.2677 95.0061 47.0413 95.0061 45.1714C95.0061 43.3217 95.6897 41.8539 97.3987 41.8539C99.0876 41.8539 99.7712 43.2211 99.7712 45.1714C99.7712 47.1217 98.8866 48.2677 97.4993 48.2677Z" fill="#252525"/>
<path d="M108 50.5397C110.574 50.5397 112.343 49.2931 112.343 47.2222C112.343 44.8095 110.433 44.327 108.704 43.9651C107.236 43.6635 105.869 43.583 105.869 42.6984C105.869 41.9545 106.573 41.5523 107.638 41.5523C108.805 41.5523 109.508 41.9545 109.629 43.0603H112.102C111.901 40.9894 110.393 39.6423 107.679 39.6423C105.326 39.6423 103.476 40.7079 103.476 42.9396C103.476 45.1915 105.286 45.6942 107.136 46.0561C108.543 46.3375 109.85 46.4381 109.85 47.4233C109.85 48.1471 109.166 48.6095 107.96 48.6095C106.734 48.6095 105.889 48.0868 105.708 46.9005H103.175C103.336 49.0921 105.005 50.5397 108 50.5397Z" fill="#252525"/>
<path d="M122.725 50.2381V39.9238H119.99V45.8751C119.99 47.2423 119.206 48.2074 117.919 48.2074C116.753 48.2074 116.21 47.5439 116.21 46.3375V39.9238H113.496V46.8C113.496 49.0518 114.783 50.5196 117.075 50.5196C118.523 50.5196 119.327 49.9767 120.031 49.0317H120.091V50.2381H122.725Z" fill="#252525"/>
<path d="M124.494 50.2381H127.228V44.2465C127.228 42.8793 127.972 41.9947 129.078 41.9947C130.083 41.9947 130.666 42.5978 130.666 43.764V50.2381H133.401V44.2465C133.401 42.8793 134.104 41.9947 135.25 41.9947C136.256 41.9947 136.839 42.5978 136.839 43.764V50.2381H139.573V43.3016C139.573 41.0497 138.347 39.6423 136.175 39.6423C134.868 39.6423 133.783 40.3259 133.079 41.4518H133.039C132.536 40.3661 131.491 39.6423 130.184 39.6423C128.756 39.6423 127.751 40.3661 127.188 41.3111H127.128V39.9238H124.494V50.2381Z" fill="#252525"/>
<path d="M87.876 32.572H90.6104V18.1963H87.876V32.572Z" fill="#252525"/>
<path d="M97.2961 32.8737C100.493 32.8737 102.685 30.5012 102.685 27.425C102.685 24.3488 100.493 21.9763 97.2961 21.9763C94.0993 21.9763 91.9077 24.3488 91.9077 27.425C91.9077 30.5012 94.0993 32.8737 97.2961 32.8737ZM97.2961 30.7827C95.6072 30.7827 94.6824 29.4356 94.6824 27.425C94.6824 25.4144 95.6072 24.0472 97.2961 24.0472C98.9649 24.0472 99.9099 25.4144 99.9099 27.425C99.9099 29.4356 98.9649 30.7827 97.2961 30.7827Z" fill="#252525"/>
<path d="M108.5 36.0907C110.028 36.0907 111.355 35.7288 112.219 34.9245C112.983 34.2208 113.446 33.2356 113.446 31.788V22.2578H110.812V23.3435H110.772C110.148 22.479 109.203 21.9763 107.917 21.9763C105.303 21.9763 103.453 23.9467 103.453 27.0229C103.453 30.1393 105.705 31.9488 107.997 31.9488C109.304 31.9488 110.088 31.4261 110.691 30.7425H110.752V31.8684C110.752 33.2758 110.008 34.0197 108.46 34.0197C107.193 34.0197 106.61 33.5171 106.389 32.8737H103.674C103.956 34.8843 105.685 36.0907 108.5 36.0907ZM108.46 29.7573C107.052 29.7573 106.127 28.7319 106.127 26.9827C106.127 25.2536 107.052 24.1679 108.439 24.1679C110.088 24.1679 110.892 25.4546 110.892 26.9626C110.892 28.4906 110.189 29.7573 108.46 29.7573Z" fill="#252525"/>
<path d="M120.092 32.8737C123.289 32.8737 125.48 30.5012 125.48 27.425C125.48 24.3488 123.289 21.9763 120.092 21.9763C116.895 21.9763 114.704 24.3488 114.704 27.425C114.704 30.5012 116.895 32.8737 120.092 32.8737ZM120.092 30.7827C118.403 30.7827 117.478 29.4356 117.478 27.425C117.478 25.4144 118.403 24.0472 120.092 24.0472C121.761 24.0472 122.706 25.4144 122.706 27.425C122.706 29.4356 121.761 30.7827 120.092 30.7827Z" fill="#252525"/>
<path d="M127.877 28.6312H139.7V26.2788H127.877V28.6312Z" fill="#252525"/>
<path d="M140.566 38.1718C140.566 37.7091 140.941 37.334 141.404 37.334H143.079C143.542 37.334 143.917 37.7091 143.917 38.1718C143.917 38.6344 143.542 39.0095 143.079 39.0095H141.404C140.941 39.0095 140.566 38.6344 140.566 38.1718Z" fill="#252525"/>
<path fill-rule="evenodd" clip-rule="evenodd" d="M60.2212 15C71.2669 15 80.2212 23.9543 80.2212 35C80.2212 46.0457 71.2669 55 60.2212 55C49.1755 55 40.2212 46.0457 40.2212 35C40.2212 23.9543 49.1755 15 60.2212 15ZM59.4983 16.4966C57.2167 16.8177 55.0441 18.6511 53.3576 21.7174C52.8684 22.6068 52.427 23.5895 52.0423 24.6504C54.3355 24.0742 56.8546 23.7344 59.4983 23.6819V16.4966ZM50.352 25.1308C50.8303 23.6296 51.4155 22.2484 52.0908 21.0206C52.9268 19.5006 53.919 18.188 55.0369 17.1798C48.958 18.9452 44.1664 23.7368 42.401 29.8157C43.4091 28.6978 44.7218 27.7056 46.2418 26.8696C47.4696 26.1943 48.8508 25.6091 50.352 25.1308ZM49.8716 26.8211C49.2954 29.1143 48.9556 31.6334 48.9031 34.2771H41.7178C42.0389 31.9954 43.8723 29.8228 46.9386 28.1364C47.828 27.6472 48.8107 27.2058 49.8716 26.8211ZM50.3492 34.2771C50.4089 31.392 50.8242 28.6834 51.5114 26.2902C53.9046 25.603 56.6133 25.1876 59.4983 25.1279V28.2508C58.422 31.0062 56.2268 33.2012 53.4713 34.2771H50.3492ZM48.9031 35.7229H41.7178C42.0389 38.0046 43.8723 40.1771 46.9386 41.8636C47.828 42.3528 48.8107 42.7942 49.8716 43.1789C49.2954 40.8857 48.9556 38.3666 48.9031 35.7229ZM51.5114 43.7098C50.8242 41.3166 50.4089 38.608 50.3492 35.7229H53.4713C56.2268 36.7988 58.4221 38.9938 59.4983 41.7492V44.8721C56.6133 44.8124 53.9046 44.397 51.5114 43.7098ZM50.352 44.8692C48.8508 44.3909 47.4696 43.8057 46.2418 43.1304C44.7218 42.2944 43.4091 41.3022 42.401 40.1843C44.1664 46.2632 48.958 51.0548 55.0369 52.8202C53.919 51.812 52.9268 50.4994 52.0908 48.9793C51.4155 47.7516 50.8303 46.3704 50.352 44.8692ZM59.4983 53.5034C57.2167 53.1823 55.0441 51.3489 53.3576 48.2826C52.8684 47.3932 52.427 46.4105 52.0423 45.3496C54.3355 45.9258 56.8546 46.2656 59.4983 46.3181V53.5034ZM65.4055 52.8202C66.5234 51.812 67.5156 50.4994 68.3517 48.9793C69.0269 47.7516 69.6121 46.3704 70.0904 44.8692C71.5916 44.3909 72.9728 43.8057 74.2006 43.1304C75.7206 42.2944 77.0333 41.3022 78.0414 40.1843C76.276 46.2632 71.4844 51.0548 65.4055 52.8202ZM68.4001 45.3496C68.0154 46.4105 67.574 47.3932 67.0848 48.2826C65.3984 51.3489 63.2258 53.1823 60.9441 53.5034V46.3181C63.5878 46.2656 66.1069 45.9258 68.4001 45.3496ZM70.5708 43.1789C71.6317 42.7942 72.6144 42.3528 73.5038 41.8636C76.5701 40.1771 78.4035 38.0046 78.7246 35.7229H71.5393C71.4868 38.3666 71.147 40.8857 70.5708 43.1789ZM70.0933 35.7229C70.0336 38.608 69.6182 41.3166 68.931 43.7098C66.5378 44.397 63.8292 44.8124 60.9441 44.8721V41.7515C62.02 38.9951 64.2157 36.7991 66.972 35.7229H70.0933ZM71.5393 34.2771H78.7246C78.4035 31.9954 76.5701 29.8228 73.5038 28.1364C72.6144 27.6472 71.6317 27.2058 70.5708 26.8211C71.147 29.1143 71.4868 31.6334 71.5393 34.2771ZM68.931 26.2902C69.6182 28.6834 70.0336 31.392 70.0933 34.2771H66.972C64.2157 33.2009 62.02 31.0049 60.9441 28.2485V25.1279C63.8292 25.1876 66.5378 25.603 68.931 26.2902ZM70.0904 25.1308C71.5916 25.6091 72.9728 26.1943 74.2006 26.8696C75.7206 27.7056 77.0333 28.6978 78.0414 29.8157C76.276 23.7368 71.4844 18.9452 65.4055 17.1798C66.5234 18.188 67.5156 19.5006 68.3517 21.0206C69.0269 22.2484 69.6121 23.6296 70.0904 25.1308ZM60.9441 16.4966C63.2258 16.8177 65.3984 18.6511 67.0848 21.7174C67.574 22.6068 68.0154 23.5895 68.4001 24.6504C66.1069 24.0742 63.5878 23.7344 60.9441 23.6819V16.4966Z" fill="#252525"/>
</svg>

<svg width="184" height="70" fill="none" xmlns="http://www.w3.org/2000/svg"><rect x=".221" width="183.696" height="70" rx="35" fill="#fff"/><path d="M87.835 50.238h2.735V39.924h-2.735v10.314Zm0-11.923h2.735v-2.453h-2.735v2.453Zm4.497 15.301h2.734v-4.544h.04c.584.885 1.529 1.468 2.976 1.468 2.654 0 4.464-2.111 4.464-5.449 0-3.217-1.749-5.449-4.484-5.449-1.407 0-2.372.664-3.036 1.569h-.06v-1.287h-2.634v13.692Zm5.167-5.348c-1.628 0-2.493-1.227-2.493-3.097 0-1.85.684-3.317 2.393-3.317 1.689 0 2.372 1.367 2.372 3.317 0 1.95-.884 3.097-2.272 3.097ZM108 50.54c2.574 0 4.343-1.247 4.343-3.318 0-2.413-1.91-2.895-3.639-3.257-1.468-.302-2.835-.382-2.835-1.267 0-.743.704-1.146 1.769-1.146 1.167 0 1.87.403 1.991 1.508h2.473c-.201-2.07-1.709-3.418-4.423-3.418-2.353 0-4.203 1.066-4.203 3.298 0 2.252 1.81 2.754 3.66 3.116 1.407.282 2.714.382 2.714 1.367 0 .724-.684 1.186-1.89 1.186-1.226 0-2.071-.522-2.252-1.709h-2.533c.161 2.192 1.83 3.64 4.825 3.64Zm14.725-.302V39.924h-2.735v5.951c0 1.367-.784 2.332-2.071 2.332-1.166 0-1.709-.663-1.709-1.87v-6.413h-2.714V46.8c0 2.252 1.287 3.72 3.579 3.72 1.448 0 2.252-.543 2.956-1.488h.06v1.206h2.634Zm1.769 0h2.734v-5.992c0-1.367.744-2.251 1.85-2.251 1.005 0 1.588.603 1.588 1.769v6.474h2.735v-5.992c0-1.367.703-2.251 1.849-2.251 1.006 0 1.589.603 1.589 1.769v6.474h2.734v-6.936c0-2.252-1.226-3.66-3.398-3.66-1.307 0-2.392.684-3.096 1.81h-.04c-.503-1.086-1.548-1.81-2.855-1.81-1.428 0-2.433.724-2.996 1.67h-.06v-1.388h-2.634v10.314ZM87.876 32.572h2.734V18.196h-2.734v14.376Zm9.42.302c3.197 0 5.389-2.373 5.389-5.449 0-3.076-2.192-5.449-5.389-5.449s-5.388 2.373-5.388 5.449c0 3.076 2.191 5.449 5.388 5.449Zm0-2.091c-1.689 0-2.614-1.347-2.614-3.358 0-2.01.925-3.378 2.614-3.378 1.669 0 2.614 1.367 2.614 3.378 0 2.01-.945 3.358-2.614 3.358ZM108.5 36.09c1.528 0 2.855-.361 3.719-1.166.764-.703 1.227-1.688 1.227-3.136v-9.53h-2.634v1.085h-.04c-.624-.864-1.569-1.367-2.855-1.367-2.614 0-4.464 1.97-4.464 5.047 0 3.116 2.252 4.926 4.544 4.926 1.307 0 2.091-.523 2.694-1.207h.061v1.126c0 1.408-.744 2.152-2.292 2.152-1.267 0-1.85-.503-2.071-1.146h-2.715c.282 2.01 2.011 3.217 4.826 3.217Zm-.04-6.333c-1.408 0-2.333-1.025-2.333-2.774 0-1.73.925-2.815 2.312-2.815 1.649 0 2.453 1.287 2.453 2.795 0 1.528-.703 2.794-2.432 2.794Zm11.632 3.117c3.197 0 5.388-2.373 5.388-5.449 0-3.076-2.191-5.449-5.388-5.449s-5.388 2.373-5.388 5.449c0 3.076 2.191 5.449 5.388 5.449Zm0-2.091c-1.689 0-2.614-1.347-2.614-3.358 0-2.01.925-3.378 2.614-3.378 1.669 0 2.614 1.367 2.614 3.378 0 2.01-.945 3.358-2.614 3.358Zm7.785-2.152H139.7V26.28h-11.823v2.352Zm12.689 9.541c0-.463.375-.838.838-.838h1.675a.838.838 0 1 1 0 1.675h-1.675a.838.838 0 0 1-.838-.837Z" fill="#252525"/><path fill-rule="evenodd" clip-rule="evenodd" d="M60.221 15c11.046 0 20 8.954 20 20s-8.954 20-20 20c-11.045 0-20-8.954-20-20s8.955-20 20-20Zm-.723 1.497c-2.281.32-4.454 2.154-6.14 5.22-.49.89-.931 1.873-1.316 2.933 2.294-.576 4.813-.916 7.456-.968v-7.185Zm-9.146 8.634a23.09 23.09 0 0 1 1.739-4.11c.836-1.52 1.828-2.833 2.946-3.841A18.593 18.593 0 0 0 42.4 29.816c1.008-1.118 2.32-2.11 3.84-2.946a23.09 23.09 0 0 1 4.111-1.74Zm-.48 1.69c-.577 2.293-.916 4.812-.969 7.456h-7.185c.32-2.282 2.154-4.454 5.22-6.14.89-.49 1.873-.931 2.934-1.316Zm.477 7.456c.06-2.885.475-5.594 1.162-7.987 2.394-.687 5.102-1.102 7.987-1.162v3.123a10.64 10.64 0 0 1-6.027 6.026H50.35Zm-1.446 1.446h-7.185c.32 2.282 2.154 4.454 5.22 6.14.89.49 1.873.931 2.934 1.316-.577-2.293-.916-4.812-.969-7.456Zm2.608 7.987c-.687-2.393-1.102-5.102-1.162-7.987h3.122a10.64 10.64 0 0 1 6.027 6.026v3.123c-2.885-.06-5.593-.475-7.987-1.162Zm-1.159 1.16a23.09 23.09 0 0 1-4.11-1.74c-1.52-.836-2.833-1.828-3.841-2.946A18.593 18.593 0 0 0 55.037 52.82c-1.118-1.008-2.11-2.32-2.946-3.84a23.086 23.086 0 0 1-1.739-4.11Zm9.146 8.633c-2.281-.32-4.454-2.154-6.14-5.22-.49-.89-.931-1.873-1.316-2.933 2.294.576 4.813.916 7.456.968v7.185Zm5.908-.683c1.117-1.008 2.11-2.32 2.946-3.84a23.093 23.093 0 0 0 1.738-4.11 23.09 23.09 0 0 0 4.11-1.74c1.52-.836 2.833-1.828 3.841-2.946A18.593 18.593 0 0 1 65.406 52.82Zm2.994-7.47a20.824 20.824 0 0 1-1.315 2.933c-1.687 3.066-3.86 4.9-6.14 5.22v-7.185c2.643-.052 5.162-.392 7.455-.968Zm2.17-2.171a20.824 20.824 0 0 0 2.934-1.315c3.066-1.687 4.9-3.86 5.22-6.141H71.54c-.052 2.644-.392 5.163-.968 7.456Zm-.477-7.456c-.06 2.885-.475 5.594-1.162 7.987-2.393.687-5.102 1.102-7.987 1.162v-3.12a10.64 10.64 0 0 1 6.028-6.03h3.121Zm1.446-1.446h7.186c-.322-2.282-2.155-4.454-5.221-6.14-.89-.49-1.872-.931-2.933-1.316.576 2.293.916 4.812.968 7.456Zm-2.608-7.987c.687 2.393 1.103 5.102 1.162 7.987h-3.121a10.64 10.64 0 0 1-6.028-6.029v-3.12c2.885.06 5.594.475 7.987 1.162Zm1.16-1.16a23.09 23.09 0 0 1 4.11 1.74c1.52.836 2.832 1.828 3.84 2.946A18.593 18.593 0 0 0 65.406 17.18c1.117 1.008 2.11 2.32 2.946 3.84a23.097 23.097 0 0 1 1.738 4.11Zm-9.147-8.633c2.282.32 4.454 2.154 6.14 5.22.49.89.931 1.873 1.316 2.933-2.293-.576-4.812-.916-7.456-.968v-7.185Z" fill="#252525"/></svg>
